X: 1
T: Spanish Cavaliero
R: march
Z: 2011 John Chambers <jc:trillian.mit.edu>
B: Ford Collection
M: 2/4
L: 1/8
K: F
"F"CA A>A | A2 FF | "Bb"D/D/B B>B | "Gm"B3 D |\
"C7"C2 EG | d2 c>d | "F"(c4 | A2) z2 |
"F"cc F>A | c3 c | "Bb"dd BG | "Gm"D3 D |\
"C7"C2 EG | c=B _BE | (G4- | "F"F)z [fcA]z |]
